X:139
T:Broad Hole. RH139
R:jig
S:Rev.R.Harrison’s MS,c1815,Cumbria
O:England
A:Temple Sowerby,Cumbria
Z:vmp.Simon Wilson. Review PJH, 2008.
M:6/8
L:1/8
Q:3/8=120
K:F
c|cag fed|c3 A2c|{c}BAB GAB|c3 A2c|\
cag fed|c3A2A|BAB GFE|F3A2||!
c|BAB GAB|cBc A2f|efg c2e|fga c2A|\
BAB GAB|cde fga|gba gfe|f3F2|]

